X:1
T:James Gibb editions
T:Jesu summa benignitas - Giovanelli
T:#
%%score { 1 | 2 } 3
L:1/8
Q:1/4=54
M:4/4
K:C
V:1 treble nm="Soprano I" snm="S"
V:2 treble 
V:3 treble nm="Alto" snm="A"
V:1
"^Jesu summa benignitas""^Ruggiero Giovanelli\n (1560-1625)""^adagio" c4"^," B2 !^!B2 | %1
w: Je- su sum-|
w: Bo- num mi-|
 cc (d2- d c2) B | c4 z2"^meno"!pp![Q:1/4=50] B2- | B2 A2 e4 | %4
w: ma be- ni\- * * gni-|tas, mi\-|* ra, mi-|
w: hi di- li- * * ge-|re Je-|* sum, Je-|
[M:4/4][Q:1/4=50][Q:1/4=50] d4 c/B/A/B/ c/d/e/f/ | g2 gf e3 e | %6
w: ra cor\- * * * * * * *|* dis ju- cun- di-|
w: sum, non * * * * * * *|* ul- tra quae- re-|
 d2 z"^adagio"!pp![Q:1/4=54][Q:1/4=54] .c .d.e.c.d | %7
w: tas, In- com- pre- hen- sa|
w: re: Mi- hi pror- sis de-|
[Q:1/4=54][Q:1/4=54] !tenuto!B>B B2 z!mf! !>!e2 d- | d"^," c2 B2 c B>B | !fermata!A8 |] %10
w: bo- ni- tas, tu- a|* me strin- git cha- ri-|tas.|
w: fi- ce- re Ut il\-|* li que- am vi- ve-|re.|
V:2
"^con sentimento" z2 A4"^," ^G2 | !>!^G2 AA (Bc d>)d | e4 z2!pp! =G2- | %3
w: Je- su|sum- ma be- ni\- * * gni-|tas, mi\-|
w: Bo- num|mi- hi di- li\- * * ge-|re Je\-|
 G2 F2"^delicatamente" E/D/C/D/ E/F/G/A/ |[M:4/4] B2 B2 (A/B/c/B/ A/B/c/A/) | B2 B (d2 ^c/B/ c>)c | %6
w: * ra, cor\- * * * * * * *|* su, cor\- * * * * * * *|dis ju- cun\- * * * di-|
w: * sum, Je\- * * * * * * *|* sum, non * * * * * * *|ul- tra quae\- * * * re-|
 d2 z!pp! .A .B.=c.A.A | !tenuto!^G>G G2 z!mf! !>!c2 B | A =G2 ^F (^G A2) G | !fermata!A8 |] %10
w: tas, In- com- pre- hen- sa|bo- ni- tas, tu- a|me strin- git cha\- * ri-|tas.|
w: re: Mi- hi pror- sus de-|fi- ce- re Ut il-|li que- am vi\- * ve-|re.|
V:3
!<(! A,4!<)!!>(! E4!>)! | !>!E2 FF G3 G | C4!pp! E4 | D4 C/B,/A,/B,/ C/D/E/F/ | %4
w: Je- su|sum- ma be- ni- gni-|tas, mi-|ra, cor\- * * * * * * *|
w: Bo- num|mi- hi di- li- ge-|re Je-|sum, non * * * * * * *|
[M:4/4] G2 (GG) A3 A | G3 D A3 A | D2 z!pp! .A .G.E.F.D | !tenuto!E>E"^," E2!mf! !>!A2 G2 | %8
w: * dis ju- cun- di-|tas, ju- cun- di-|tas, In- com- pre- hen- sa|bo- ni- tas, tu- a|
w: * ul\- * tra, non|ul- tra quae- re-|re: Mi- hi pror- sus de-|fi- ce- re Ut il-|
 F E2 D E3 E | !fermata!A,8 |] %10
w: me strin- git cha- ri-|tas.|
w: li que- am vi- ve-|re.1|

